X:1
T:Winscott, LM
T:Winscott, LM
T:Samuel Sebastian Wesley, 1872
T:Public Domain Courtesy of the Cyber Hymnal™
C:Samuel Sebastian Wesley, 1872
Z:Public Domain
Z:Courtesy of the Cyber Hymnal™
%%score ( 1 2 ) ( 3 4 )
L:1/8
M:3/4
K:F
V:1 treble 
V:2 treble 
V:3 bass 
V:4 bass 
V:1
 [FA]2 [FA]2 [EG]2 | F4 [Fd]2 | [Ec]4 [GB]2 | [FA]6 | [FA]2 [GB]2 [FA]2 | [DG]4 F2 | [CE]4 [CF]2 | %7
 [EG]6 | [Ec]2 [DB]2 [_EA]2 | (A2 G2) [DA]2 | [DB]4 [Dd]2 | [Gc]6 | [EB]2 [EA]2 [EG]2 | %13
 [DF]4 [CE]2 | [CF]4 [CE]2 | [CF]6 |] %16
V:2
 x6 | F4 x2 | x6 | x6 | x6 | x4 F2 | x6 | x6 | x6 | D4 x2 | x6 | x6 | x6 | x6 | x6 | x6 |] %16
V:3
 [F,C]2 [F,C]2 [C,B,]2 | [D,A,]4 [B,,G,]2 | [C,G,]4 [E,C]2 | [F,C]6 | [F,C]2 [E,C]2 [F,C]2 | %5
 [B,D]4 [A,C]2 | [G,B,]4 [F,A,]2 | [C,C]6 | [A,,C]2 [B,,D]2 [C,C]2 | [D,B,]4 [^F,A,]2 | %10
 G,4 [F,G,]2 | [E,G,]6 | [C,G,]2 [C,A,]2 [^C,B,]2 | ([D,A,]2 [B,,B,]2) [G,,B,]2 | [C,A,]4 [C,G,]2 | %15
 [F,,A,]6 |] %16
V:4
 x6 | x6 | x6 | x6 | x6 | x6 | x6 | x6 | x6 | x6 | G,4 x2 | x6 | x6 | x6 | x6 | x6 |] %16

